X: 1583
T: Jardee Polka
C:Bob Rummery, Sorrento, WA
B: australian traditional tunes wiki
M:2/4
L:1/16
R: Polka
Q: 1/4=100
K:D
V:1 
AG||"D"F2FG A2d2|fgfe d2d2|"G"g2gg "D"f2d2|"A7"cdcB A2G2|"D"F2FG A2d2|fgfe d2d2|"G"g2g"A7"g e2cc|"D"d2d2d4||
"D"[AF][BG][AF][EG] [D2F2]d2|fgfe d2d2|"G"g2gg "D"f2d2|"A7"cdcB A2G2|"D"F2FG A2d2|fgfe d2d2|"G"g2g"A7"g e2cc|"D"d2d2 "Coda"d4||
|:"A7"c3d e2e2|cdcd e2c2|"G"d2dc B2B2|d3c B2B2|"A7"c3d e2e2| cdcd e2c2|"G"d2dc B2cB|1"A"A2c2A4:|2"A  D.C. al Coda"A2c2 A2G2||
% abcbook-tune_id 6342d53a462d8ab6352ed637


% abcbook-boost 0
% abcbook-tablature 
% abcbook-transpose 
% abcbook-lastupdated 1665324372421
% abcbook-soundfonts 
% abcbook-repeats 1
% NFF Book 2008

